SVG_Azure_Grouped/Generic/Warning.svg

<?xml version="1.0" encoding="UTF-8" standalone="no"?>
<!-- Generated by Microsoft Visio, SVG Export Warning.svg Page-1 -->

<svg
   xmlns:dc="http://purl.org/dc/elements/1.1/"
   xmlns:cc="http://creativecommons.org/ns#"
   xmlns:rdf="http://www.w3.org/1999/02/22-rdf-syntax-ns#"
   xmlns:svg="http://www.w3.org/2000/svg"
   xmlns="http://www.w3.org/2000/svg"
   xmlns:sodipodi="http://sodipodi.sourceforge.net/DTD/sodipodi-0.dtd"
   xmlns:inkscape="http://www.inkscape.org/namespaces/inkscape"
   width="0.75660342in"
   height="0.65859497in"
   viewBox="0 0 54.475368 47.418877"
   xml:space="preserve"
   class="st3"
   version="1.1"
   id="svg29"
   sodipodi:docname="Warning.svg"
   style="font-size:12px;overflow:visible;color-interpolation-filters:sRGB;fill:none;fill-rule:evenodd;stroke-linecap:square;stroke-miterlimit:3"
   inkscape:version="0.92.5 (2060ec1f9f, 2020-04-08)"><metadata
   id="metadata35"><rdf:RDF><cc:Work
       rdf:about=""><dc:format>image/svg+xml</dc:format><dc:type
         rdf:resource="http://purl.org/dc/dcmitype/StillImage" /></cc:Work></rdf:RDF></metadata><defs
   id="defs33" /><sodipodi:namedview
   pagecolor="#ffffff"
   bordercolor="#666666"
   borderopacity="1"
   objecttolerance="10"
   gridtolerance="10"
   guidetolerance="10"
   inkscape:pageopacity="0"
   inkscape:pageshadow="2"
   inkscape:window-width="640"
   inkscape:window-height="480"
   id="namedview31"
   showgrid="false"
   inkscape:zoom="0.96500969"
   inkscape:cx="36.318153"
   inkscape:cy="31.61464"
   inkscape:window-x="0"
   inkscape:window-y="0"
   inkscape:window-maximized="0"
   inkscape:current-layer="svg29" />
	<style
   type="text/css"
   id="style2">
	<![CDATA[
		.st1 {fill:#db7500;stroke:none;stroke-linecap:butt;stroke-width:68}
		.st2 {fill:#ffffff;stroke:none;stroke-linecap:butt;stroke-width:68}
		.st3 {fill:none;fill-rule:evenodd;font-size:12px;overflow:visible;stroke-linecap:square;stroke-miterlimit:3}
	]]>
	</style>

	<g
   id="g27"
   transform="translate(-67.99908,-68.001124)">
		<title
   id="title4">Page-1</title>
		<g
   id="group16429-1"
   transform="translate(66.8895,-68)">
			<title
   id="title6">Warning.16429</title>
			<g
   id="group16430-2">
				<title
   id="title8">Sheet.16430</title>
				<g
   id="shape16431-3">
					<title
   id="title10">Sheet.16431</title>
					<path
   d="M 51.15,183.42 H 5.54 c -3.63,0 -5.54,-3.69 -3.75,-6.69 L 13.3,156.92 24.69,138.28 c 1.83,-3.01 5.47,-3.05 7.25,-0.05 l 11.55,19.4 11.39,19.14 c 1.81,2.99 -0.02,6.65 -3.73,6.65 z"
   class="st1"
   id="path12"
   inkscape:connector-curvature="0"
   style="fill:#db7500;stroke:none;stroke-width:68;stroke-linecap:butt" />
				</g>
				<g
   id="shape16432-5"
   transform="translate(24.6238,-7.15426)">
					<title
   id="title15">Sheet.16432</title>
					<ellipse
   cx="3.72263"
   cy="179.77299"
   rx="3.72263"
   ry="3.6452899"
   class="st2"
   id="ellipse17"
   style="fill:#ffffff;stroke:none;stroke-width:68;stroke-linecap:butt" />
				</g>
				<g
   id="shape16433-7"
   transform="translate(25.1989,-16.1341)">
					<title
   id="title20">Sheet.16433</title>
					<path
   d="M 3.89,166.52 H 0 l 0.99,16.9 h 4.69 l 1,-16.9 z"
   class="st2"
   id="path22"
   inkscape:connector-curvature="0"
   style="fill:#ffffff;stroke:none;stroke-width:68;stroke-linecap:butt" />
				</g>
			</g>
		</g>
	</g>
</svg>

<?xml version="1.0" encoding="UTF-8" standalone="no"?>
<!DOCTYPE svg PUBLIC "-//W3C//DTD SVG 1.1//EN" "http://www.w3.org/Graphics/SVG/1.1/DTD/svg11.dtd">
<!-- Generated by Microsoft Visio, SVG Export Warning.svg Page-1 -->
<svg xmlns="http://www.w3.org/2000/svg" xmlns:xlink="http://www.w3.org/1999/xlink" xmlns:ev="http://www.w3.org/2001/xml-events"
		width="2.64549in" height="2.54747in" viewBox="0 0 190.475 183.418" xml:space="preserve" color-interpolation-filters="sRGB"
		class="st3">
	<style type="text/css">
	<![CDATA[
		.st1 {fill:#db7500;stroke:none;stroke-linecap:butt;stroke-width:68}
		.st2 {fill:#ffffff;stroke:none;stroke-linecap:butt;stroke-width:68}
		.st3 {fill:none;fill-rule:evenodd;font-size:12px;overflow:visible;stroke-linecap:square;stroke-miterlimit:3}
	]]>
	</style>

	<g>
		<title>Page-1</title>
		<g id="group16046-1" transform="translate(66.8895,-68)">
			<title>Warning.16046</title>
			<g id="group16047-2">
				<title>Sheet.16047</title>
				<g id="shape16048-3">
					<title>Sheet.16048</title>
					<path d="M51.15 183.42 L5.54 183.42 C1.91 183.42 0 179.73 1.79 176.73 L13.3 156.92 L24.69 138.28 C26.52 135.27
								 30.16 135.23 31.94 138.23 L43.49 157.63 L54.88 176.77 C56.69 179.76 54.86 183.42 51.15 183.42 Z"
							class="st1"/>
				</g>
				<g id="shape16049-5" transform="translate(24.6238,-7.15426)">
					<title>Sheet.16049</title>
					<ellipse cx="3.72263" cy="179.773" rx="3.72263" ry="3.64529" class="st2"/>
				</g>
				<g id="shape16050-7" transform="translate(25.1989,-16.1341)">
					<title>Sheet.16050</title>
					<path d="M3.89 166.52 L0 166.52 L0.99 183.42 L5.68 183.42 L6.68 166.52 L3.89 166.52 Z" class="st2"/>
				</g>
			</g>
		</g>
	</g>
</svg>
